assets/images/menu-btn.svg

<svg width="28" height="17" viewBox="0 0 28 17" fill="none" xmlns="http://www.w3.org/2000/svg">
    <path fill-rule="evenodd" clip-rule="evenodd" d="M26.7048 1.9946C26.7048 2.54688 26.2571 2.9946 25.7048 2.9946H9.29051C8.73823 2.9946 8.29051 2.54688 8.29051 1.9946V1.9946C8.29051 1.44231 8.73823 0.994598 9.29051 0.994598H25.7048C26.2571 0.994598 26.7048 1.44231 26.7048 1.9946V1.9946ZM26.7048 9.01617C26.7048 9.56846 26.2571 10.0162 25.7048 10.0162H4.08252C3.53023 10.0162 3.08252 9.56846 3.08252 9.01617V9.01617C3.08252 8.46389 3.53023 8.01617 4.08252 8.01617H25.7048C26.2571 8.01617 26.7048 8.46389 26.7048 9.01617V9.01617ZM26.7048 15.9448C26.7048 16.497 26.2571 16.9448 25.7048 16.9448H9.29051C8.73823 16.9448 8.29051 16.497 8.29051 15.9448V15.9448C8.29051 15.3925 8.73823 14.9448 9.29051 14.9448H25.7048C26.2571 14.9448 26.7048 15.3925 26.7048 15.9448V15.9448Z" fill="black"/>
    </svg>

<svg xmlns="http://www.w3.org/2000/svg" width="28" height="17" fill="none"><path fill="#000" fill-rule="evenodd" d="M26.705 1.995a1 1 0 0 1-1 1H9.29a1 1 0 0 1 0-2h16.414a1 1 0 0 1 1 1Zm0 7.021a1 1 0 0 1-1 1H4.083a1 1 0 1 1 0-2h21.622a1 1 0 0 1 1 1Zm0 6.929a1 1 0 0 1-1 1H9.29a1 1 0 1 1 0-2h16.414a1 1 0 0 1 1 1Z" clip-rule="evenodd"/></svg>
